public/assets/footer-logo.svg

<svg width="81" height="82" viewBox="0 0 81 82" fill="none" xmlns="http://www.w3.org/2000/svg">
<path d="M5.94946 63.745V40.105C5.94477 39.8348 5.87262 39.5702 5.7395 39.335L3.2395 35.155L5.7395 30.975C5.87383 30.7404 5.94607 30.4754 5.94946 30.205V6.625C5.94946 5.82935 6.26552 5.0663 6.82812 4.50369C7.39073 3.94108 8.15381 3.625 8.94946 3.625H21.4795V0.625H8.94946C7.35816 0.625 5.83201 1.25717 4.70679 2.38239C3.58157 3.5076 2.94946 5.0337 2.94946 6.625V29.825L0.209473 34.415C0.0723209 34.6484 0 34.9143 0 35.185C0 35.4557 0.0723209 35.7216 0.209473 35.955L2.94946 40.545V63.745C2.95202 65.3402 3.5833 66.87 4.70654 68.0026C5.82979 69.1352 7.3544 69.7792 8.94946 69.795H21.4795V66.795H8.94946C8.55125 66.7951 8.15707 66.7158 7.78979 66.562C7.42252 66.4081 7.08954 66.1826 6.8103 65.8987C6.53106 65.6149 6.31112 65.2782 6.16333 64.9084C6.01554 64.5387 5.94283 64.1432 5.94946 63.745Z" fill="#AECC53"/>
<path d="M77.5293 29.825V6.625C77.5293 5.0337 76.8972 3.5076 75.772 2.38239C74.6468 1.25717 73.1206 0.625 71.5293 0.625H58.9492V3.625H71.4792C72.2749 3.625 73.038 3.94108 73.6006 4.50369C74.1632 5.0663 74.4792 5.82935 74.4792 6.625V30.235C74.4826 30.5054 74.5549 30.7704 74.6892 31.005L77.1892 35.185L74.6892 39.365C74.5549 39.5997 74.4826 39.8647 74.4792 40.135V63.745C74.4859 64.1432 74.4132 64.5387 74.2654 64.9084C74.1176 65.2782 73.8976 65.6149 73.6184 65.8987C73.3392 66.1826 73.0062 66.4081 72.6389 66.562C72.2716 66.7158 71.8775 66.7951 71.4792 66.795H58.9492V69.795H71.4792C72.2714 69.795 73.0556 69.6382 73.7869 69.3336C74.5181 69.0289 75.1819 68.5825 75.7397 68.02C76.2976 67.4576 76.7383 66.7902 77.0369 66.0565C77.3354 65.3227 77.4858 64.5372 77.4792 63.745V40.545L80.2192 35.955C80.3564 35.7216 80.4287 35.4557 80.4287 35.185C80.4287 34.9143 80.3564 34.6484 80.2192 34.415L77.5293 29.825Z" fill="#AECC53"/>
<path d="M62.8492 46.7973C63.8581 46.6332 64.7819 46.1327 65.4703 45.3772C66.1588 44.6217 66.5716 43.6556 66.6415 42.6358C66.7114 41.6161 66.4343 40.6027 65.8553 39.7603C65.2764 38.9179 64.4295 38.2961 63.4525 37.9959C62.4755 37.6956 61.4258 37.7346 60.4737 38.1066C59.5217 38.4785 58.7234 39.1614 58.2086 40.0445C57.6938 40.9275 57.4927 41.9587 57.6381 42.9704C57.7834 43.9821 58.2668 44.915 59.0094 45.6173C57.6015 49.0094 55.3021 51.9575 52.3551 54.1493C49.4081 56.341 45.9232 57.6949 42.2694 58.0673V38.9173C44.7927 38.6021 47.2141 37.7298 49.3588 36.3635C51.5034 34.9972 53.3174 33.171 54.6693 31.0173C55.688 30.9985 56.6705 30.6362 57.4574 29.989C58.2443 29.3418 58.7893 28.4478 59.0043 27.4519C59.2193 26.456 59.0915 25.4167 58.6417 24.5026C58.1919 23.5884 57.4464 22.853 56.5262 22.4156C55.6061 21.9783 54.5652 21.8647 53.5724 22.0932C52.5795 22.3217 51.6929 22.8789 51.0565 23.6745C50.4201 24.4701 50.071 25.4574 50.066 26.4762C50.0611 27.495 50.4007 28.4856 51.0294 29.2873C50.0274 30.7679 48.7335 32.0284 47.2272 32.9913C45.7208 33.9542 44.0339 34.5994 42.2694 34.8873V16.1773C43.1815 15.726 43.9141 14.9796 44.3483 14.0593C44.7824 13.139 44.8925 12.0989 44.6608 11.108C44.429 10.1171 43.8692 9.23377 43.0719 8.60144C42.2746 7.96911 41.287 7.625 40.2694 7.625C39.2518 7.625 38.2642 7.96911 37.4669 8.60144C36.6696 9.23377 36.1095 10.1171 35.8778 11.108C35.6461 12.0989 35.7564 13.139 36.1905 14.0593C36.6247 14.9796 37.3573 15.726 38.2694 16.1773V34.9073C36.5011 34.6191 34.8102 33.9729 33.3004 33.0082C31.7907 32.0436 30.4939 30.7808 29.4894 29.2973C30.1155 28.497 30.4531 27.5087 30.4474 26.4926C30.4416 25.4764 30.0928 24.4921 29.4576 23.6989C28.8224 22.9058 27.9379 22.3504 26.9476 22.1227C25.9573 21.8951 24.9191 22.0086 24.0013 22.4448C23.0836 22.881 22.3401 23.6143 21.8912 24.5259C21.4424 25.4376 21.3145 26.4741 21.5284 27.4674C21.7423 28.4608 22.2854 29.3529 23.0697 29.999C23.854 30.6451 24.8333 31.0074 25.8492 31.0273C27.2043 33.1825 29.0217 35.0094 31.1698 36.3757C33.3179 37.742 35.743 38.6136 38.2694 38.9273V58.0773C34.6117 57.7053 31.1225 56.3508 28.172 54.1572C25.2214 51.9637 22.9193 49.0128 21.5094 45.6173C22.0124 45.1483 22.4004 44.5695 22.6432 43.926C22.886 43.2825 22.9771 42.5917 22.9093 41.9073C22.8267 41.0704 22.5116 40.2732 21.9999 39.6059C21.4881 38.9385 20.7999 38.4276 20.0131 38.1307C19.2262 37.8338 18.372 37.7629 17.547 37.9259C16.7219 38.0889 15.959 38.4793 15.3441 39.0531C14.7293 39.6269 14.287 40.3612 14.0675 41.173C13.8479 41.9848 13.8598 42.8419 14.1017 43.6473C14.3435 44.4528 14.8057 45.1746 15.4361 45.7312C16.0666 46.2878 16.8401 46.6571 17.6693 46.7973C19.3408 51.0099 22.1544 54.6726 25.7936 57.3737C29.4328 60.0749 33.7533 61.7072 38.2694 62.0873V81.5573H42.2694V62.0873C46.7813 61.7014 51.0966 60.0665 54.7316 57.3659C58.3665 54.6653 61.1773 51.0057 62.8492 46.7973Z" fill="white"/>
</svg>

<svg xmlns="http://www.w3.org/2000/svg" width="81" height="82" fill="none" viewBox="0 0 81 82"><path fill="#aecc53" d="M5.95 63.745v-23.64a1.6 1.6 0 0 0-.21-.77l-2.5-4.18 2.5-4.18c.134-.235.206-.5.21-.77V6.625a3 3 0 0 1 3-3h12.53v-3H8.95a6 6 0 0 0-6 6v23.2l-2.74 4.59a1.52 1.52 0 0 0 0 1.54l2.74 4.59v23.2a6.06 6.06 0 0 0 6 6.05h12.53v-3H8.95a3 3 0 0 1-3-3.05m71.58-33.92v-23.2a6 6 0 0 0-6-6H58.95v3h12.53a3 3 0 0 1 3 3v23.61c.003.27.075.535.21.77l2.5 4.18-2.5 4.18a1.6 1.6 0 0 0-.21.77v23.61a3 3 0 0 1-3 3.05H58.95v3h12.53a6 6 0 0 0 6-6.05v-23.2l2.74-4.59a1.52 1.52 0 0 0 0-1.54z"/><path fill="#fff" d="M62.85 46.797a4.53 4.53 0 1 0-3.84-1.18 20.36 20.36 0 0 1-16.74 12.45v-19.15a17.15 17.15 0 0 0 12.4-7.9 4.52 4.52 0 1 0-3.64-1.73 13.13 13.13 0 0 1-8.76 5.6v-18.71a4.51 4.51 0 1 0-4 0v18.73a13.16 13.16 0 0 1-8.78-5.61 4.51 4.51 0 1 0-3.64 1.73 17.17 17.17 0 0 0 12.42 7.9v19.15a20.38 20.38 0 0 1-16.76-12.46 4.47 4.47 0 0 0 1.4-3.71 4.51 4.51 0 1 0-5.24 4.89 24.36 24.36 0 0 0 20.6 15.29v19.47h4v-19.47a24.38 24.38 0 0 0 20.58-15.29"/></svg>
